X: 1
T:Pretty Jane's -- Reel
M:C|
L:1/8
R:reel
B:Ryan's Mammoth Collection
N:285
Z:Contributed by Ray Davies,  ray:davies99.freeserve.co.uk
K:A
v(EA)(AB) (cB)(cd) | ecdB cAFA | (EA)(AB) (cB)(cd) | ecAc B2A2 |
 (EA)(AB) (cB)(cd) | ecdB cAFA | (EA)(AB) (cB)(cd) | ecAc B2A2 :|
|:va2 (ca) (ea)(ca) | dBcA (BG)E2 | a2(ea) "0"e"1"a"3"c'"1"a | \
{c'}"2"b"1"a"2"b"3"c' "1"a2z2 |
"1"(a"3"c')"1"(fa) (ea)(c"4"e) | dBcA (BG)E2 | (EA)(AB) cBcd | \
ecBc A2z2 :|
